X: 6
T: Beare Island
R: reel
M: 4/4
L: 1/8
K: Edor
EB^GB AGEc|dcB cA Beec|ddd fd AFDF|GFE FD EDB,A,|
B,EEF GFGA|Bcd GA Bcdf|g2 fg egfe|1dBAF E3 D:||2dBAF E3 A||
Beef gfe fd|BdAG FADA|Beef gfe fd|efe df e3 f|edBc ddd cd|
BcdB AFDF|GB B3 AFDF|1GFE FD E3 A:||2GFE FD E3 D||


Tune 696	Setting 13756

